assets/svg/networks/wallet_avalance.svg

<svg width="36" height="36" viewBox="0 0 36 36" fill="none" xmlns="http://www.w3.org/2000/svg">
<g clip-path="url(#clip0_52314_201705)">
<rect width="36" height="36" rx="10" fill="#E84142"/>
<path d="M12.0214 28H7.98927C7.14085 28 6.72083 28 6.46762 27.8416C6.33159 27.7565 6.21811 27.6399 6.13683 27.5016C6.05555 27.3632 6.00889 27.2073 6.00081 27.0471C5.98521 26.7471 6.19522 26.387 6.61523 25.6586L16.5755 8.34919C17.0028 7.61351 17.22 7.24628 17.4912 7.11186C17.6349 7.03834 17.7941 7 17.9556 7C18.1171 7 18.2762 7.03834 18.42 7.11186C18.69 7.24628 18.9 7.61351 19.32 8.34799L21.3757 11.874L21.3829 11.8896C21.7201 12.3876 21.9877 12.9313 22.1773 13.5013C22.2913 13.9514 22.2913 14.4398 22.1773 14.8959C21.9885 15.4722 21.7212 16.0198 21.3829 16.5232L16.1483 25.6442L16.1327 25.6754C15.8651 26.219 15.5207 26.7255 15.1127 27.1755C14.7608 27.5052 14.3373 27.7488 13.8755 27.8872C13.4482 27.9988 12.9754 27.9988 12.0226 27.9988M22.2157 27.9988H27.9903C28.8543 27.9988 29.2803 27.9988 29.5359 27.8344C29.6713 27.7489 29.7841 27.6321 29.8647 27.4938C29.9454 27.3555 29.9915 27.1998 29.9992 27.0399C30.0148 26.7471 29.812 26.4038 29.4075 25.7186L29.3619 25.6454L26.4687 20.7693L26.4387 20.7093C26.0318 20.0348 25.8218 19.6891 25.5602 19.5547C25.4178 19.4803 25.2595 19.4414 25.0988 19.4414C24.9381 19.4414 24.7798 19.4803 24.6374 19.5547C24.3686 19.6891 24.1574 20.0504 23.7374 20.7693L20.8417 25.6526V25.6682C20.4145 26.3858 20.2057 26.7483 20.2201 27.0399C20.2287 27.2007 20.2753 27.3572 20.356 27.4965C20.4367 27.6359 20.5493 27.7541 20.6845 27.8416C20.9329 27.9988 21.3601 27.9988 22.2157 27.9988Z" fill="white"/>
</g>
<defs>
<clipPath id="clip0_52314_201705">
<rect width="36" height="36" fill="white"/>
</clipPath>
</defs>
</svg>

<svg xmlns="http://www.w3.org/2000/svg" width="36" height="36" fill="none"><g clip-path="url(#a)"><rect width="36" height="36" fill="#E84142" rx="10"/><path fill="#fff" d="M12.021 28H7.99c-.848 0-1.268 0-1.521-.158A1 1 0 0 1 6 27.047c-.016-.3.194-.66.614-1.388l9.96-17.31c.428-.735.645-1.103.916-1.237a1.02 1.02 0 0 1 .929 0c.27.134.48.502.9 1.236l2.056 3.526.007.016c.337.498.605 1.041.794 1.611.114.45.114.939 0 1.395a6.6 6.6 0 0 1-.794 1.627l-5.235 9.121-.015.031a6.5 6.5 0 0 1-1.02 1.5 3.1 3.1 0 0 1-1.237.712c-.428.112-.9.112-1.853.112m10.193 0h5.774c.864 0 1.29 0 1.546-.165a1 1 0 0 0 .463-.794c.016-.293-.187-.636-.591-1.321l-.046-.074-2.893-4.876-.03-.06c-.407-.674-.617-1.02-.879-1.154a1 1 0 0 0-.923 0c-.268.134-.48.495-.9 1.214l-2.895 4.884v.015c-.427.718-.636 1.08-.622 1.372a1.02 1.02 0 0 0 .465.802c.248.157.675.157 1.53.157"/></g><defs><clipPath id="a"><path fill="#fff" d="M0 0h36v36H0z"/></clipPath></defs></svg>
